TileServer und Tiles/svg/9/96_11.svg

<?xml version='1.0' encoding='UTF-8' standalone='no'?>
<svg xmlns="http://www.w3.org/2000/svg" width="497pt" viewBox="0 0 497 279" xmlns:xlink="http://www.w3.org/1999/xlink" height="279pt">
 <defs style="stroke:none;" overflow="visible">
  <path id="glyph0-6" d="M 5.515625 -2.6875 C 5.515625 -1.800781 5.285156 -1.113281 4.828125 -0.625 C 4.378906 -0.144531 3.773438 0.09375 3.015625 0.09375 C 2.535156 0.09375 2.109375 -0.0078125 1.734375 -0.21875 C 1.367188 -0.4375 1.078125 -0.753906 0.859375 -1.171875 C 0.648438 -1.585938 0.546875 -2.09375 0.546875 -2.6875 C 0.546875 -3.570312 0.769531 -4.253906 1.21875 -4.734375 C 1.664062 -5.210938 2.273438 -5.453125 3.046875 -5.453125 C 3.523438 -5.453125 3.945312 -5.34375 4.3125 -5.125 C 4.6875 -4.914062 4.976562 -4.601562 5.1875 -4.1875 C 5.40625 -3.78125 5.515625 -3.28125 5.515625 -2.6875 Z M 1.453125 -2.6875 C 1.453125 -2.050781 1.578125 -1.546875 1.828125 -1.171875 C 2.078125 -0.804688 2.476562 -0.625 3.03125 -0.625 C 3.570312 -0.625 3.96875 -0.804688 4.21875 -1.171875 C 4.46875 -1.546875 4.59375 -2.050781 4.59375 -2.6875 C 4.59375 -3.320312 4.46875 -3.816406 4.21875 -4.171875 C 3.96875 -4.535156 3.566406 -4.71875 3.015625 -4.71875 C 2.472656 -4.71875 2.078125 -4.535156 1.828125 -4.171875 C 1.578125 -3.816406 1.453125 -3.320312 1.453125 -2.6875 Z M 1.453125 -2.6875 "/>
  <path id="glyph0-5" d="M 2.75 0.09375 C 2.082031 0.09375 1.546875 -0.132812 1.140625 -0.59375 C 0.742188 -1.0625 0.546875 -1.753906 0.546875 -2.671875 C 0.546875 -3.585938 0.75 -4.28125 1.15625 -4.75 C 1.5625 -5.21875 2.097656 -5.453125 2.765625 -5.453125 C 3.171875 -5.453125 3.503906 -5.375 3.765625 -5.21875 C 4.035156 -5.070312 4.253906 -4.890625 4.421875 -4.671875 L 4.484375 -4.671875 C 4.472656 -4.753906 4.457031 -4.878906 4.4375 -5.046875 C 4.425781 -5.222656 4.421875 -5.359375 4.421875 -5.453125 L 4.421875 -7.59375 L 5.296875 -7.59375 L 5.296875 0 L 4.59375 0 L 4.453125 -0.71875 L 4.421875 -0.71875 C 4.265625 -0.488281 4.050781 -0.296875 3.78125 -0.140625 C 3.507812 0.015625 3.164062 0.09375 2.75 0.09375 Z M 2.890625 -0.625 C 3.453125 -0.625 3.847656 -0.78125 4.078125 -1.09375 C 4.316406 -1.40625 4.4375 -1.875 4.4375 -2.5 L 4.4375 -2.65625 C 4.4375 -3.320312 4.320312 -3.832031 4.09375 -4.1875 C 3.875 -4.550781 3.46875 -4.734375 2.875 -4.734375 C 2.40625 -4.734375 2.050781 -4.539062 1.8125 -4.15625 C 1.570312 -3.78125 1.453125 -3.28125 1.453125 -2.65625 C 1.453125 -2.007812 1.570312 -1.507812 1.8125 -1.15625 C 2.050781 -0.800781 2.410156 -0.625 2.890625 -0.625 Z M 2.890625 -0.625 "/>
  <path id="glyph0-4" d="M 3.4375 -5.453125 C 4.070312 -5.453125 4.550781 -5.296875 4.875 -4.984375 C 5.207031 -4.679688 5.375 -4.179688 5.375 -3.484375 L 5.375 0 L 4.5 0 L 4.5 -3.4375 C 4.5 -4.289062 4.097656 -4.71875 3.296875 -4.71875 C 2.703125 -4.71875 2.289062 -4.550781 2.0625 -4.21875 C 1.84375 -3.882812 1.734375 -3.40625 1.734375 -2.78125 L 1.734375 0 L 0.84375 0 L 0.84375 -5.359375 L 1.5625 -5.359375 L 1.6875 -4.625 L 1.734375 -4.625 C 1.910156 -4.90625 2.148438 -5.113281 2.453125 -5.25 C 2.765625 -5.382812 3.09375 -5.453125 3.4375 -5.453125 Z M 3.4375 -5.453125 "/>
  <path id="glyph0-3" d="M 2.875 -5.453125 C 3.53125 -5.453125 4.015625 -5.304688 4.328125 -5.015625 C 4.640625 -4.734375 4.796875 -4.28125 4.796875 -3.65625 L 4.796875 0 L 4.15625 0 L 3.984375 -0.765625 L 3.953125 -0.765625 C 3.710938 -0.460938 3.460938 -0.242188 3.203125 -0.109375 C 2.953125 0.0234375 2.601562 0.09375 2.15625 0.09375 C 1.664062 0.09375 1.257812 -0.03125 0.9375 -0.28125 C 0.613281 -0.539062 0.453125 -0.941406 0.453125 -1.484375 C 0.453125 -2.023438 0.660156 -2.4375 1.078125 -2.71875 C 1.503906 -3.007812 2.15625 -3.171875 3.03125 -3.203125 L 3.9375 -3.234375 L 3.9375 -3.546875 C 3.9375 -3.992188 3.835938 -4.300781 3.640625 -4.46875 C 3.453125 -4.644531 3.179688 -4.734375 2.828125 -4.734375 C 2.546875 -4.734375 2.28125 -4.691406 2.03125 -4.609375 C 1.78125 -4.523438 1.539062 -4.429688 1.3125 -4.328125 L 1.046875 -4.984375 C 1.285156 -5.117188 1.5625 -5.226562 1.875 -5.3125 C 2.195312 -5.40625 2.53125 -5.453125 2.875 -5.453125 Z M 3.9375 -2.625 L 3.140625 -2.59375 C 2.472656 -2.5625 2.007812 -2.453125 1.75 -2.265625 C 1.5 -2.078125 1.375 -1.816406 1.375 -1.484375 C 1.375 -1.179688 1.460938 -0.957031 1.640625 -0.8125 C 1.828125 -0.675781 2.0625 -0.609375 2.34375 -0.609375 C 2.800781 -0.609375 3.179688 -0.734375 3.484375 -0.984375 C 3.785156 -1.234375 3.9375 -1.617188 3.9375 -2.140625 Z M 3.9375 -2.625 "/>
  <path id="glyph0-2" d="M 3.34375 -5.453125 C 3.445312 -5.453125 3.554688 -5.445312 3.671875 -5.4375 C 3.785156 -5.4375 3.890625 -5.425781 3.984375 -5.40625 L 3.875 -4.59375 C 3.78125 -4.613281 3.679688 -4.628906 3.578125 -4.640625 C 3.484375 -4.648438 3.390625 -4.65625 3.296875 -4.65625 C 3.015625 -4.65625 2.753906 -4.578125 2.515625 -4.421875 C 2.273438 -4.273438 2.082031 -4.066406 1.9375 -3.796875 C 1.800781 -3.535156 1.734375 -3.222656 1.734375 -2.859375 L 1.734375 0 L 0.84375 0 L 0.84375 -5.359375 L 1.5625 -5.359375 L 1.671875 -4.375 L 1.703125 -4.375 C 1.878906 -4.664062 2.101562 -4.914062 2.375 -5.125 C 2.65625 -5.34375 2.976562 -5.453125 3.34375 -5.453125 Z M 3.34375 -5.453125 "/>
  <path id="glyph0-1" d="M 0.96875 -7.140625 L 3.015625 -7.140625 C 3.898438 -7.140625 4.570312 -7.003906 5.03125 -6.734375 C 5.488281 -6.472656 5.71875 -6.019531 5.71875 -5.375 C 5.71875 -4.945312 5.597656 -4.59375 5.359375 -4.3125 C 5.128906 -4.039062 4.796875 -3.867188 4.359375 -3.796875 L 4.359375 -3.734375 C 4.660156 -3.691406 4.929688 -3.609375 5.171875 -3.484375 C 5.421875 -3.359375 5.613281 -3.175781 5.75 -2.9375 C 5.882812 -2.707031 5.953125 -2.40625 5.953125 -2.03125 C 5.953125 -1.382812 5.726562 -0.882812 5.28125 -0.53125 C 4.84375 -0.175781 4.242188 0 3.484375 0 L 0.96875 0 Z M 1.875 -4.09375 L 3.1875 -4.09375 C 3.800781 -4.09375 4.222656 -4.191406 4.453125 -4.390625 C 4.679688 -4.585938 4.796875 -4.878906 4.796875 -5.265625 C 4.796875 -5.660156 4.65625 -5.941406 4.375 -6.109375 C 4.09375 -6.285156 3.648438 -6.375 3.046875 -6.375 L 1.875 -6.375 Z M 1.875 -3.34375 L 1.875 -0.765625 L 3.3125 -0.765625 C 3.945312 -0.765625 4.382812 -0.882812 4.625 -1.125 C 4.875 -1.375 5 -1.695312 5 -2.09375 C 5 -2.46875 4.867188 -2.769531 4.609375 -3 C 4.359375 -3.226562 3.898438 -3.34375 3.234375 -3.34375 Z M 1.875 -3.34375 "/>
  <path id="glyph0-0" d="M 0.9375 0 L 0.9375 -7.140625 L 5.046875 -7.140625 L 5.046875 0 Z M 1.453125 -0.515625 L 4.546875 -0.515625 L 4.546875 -6.625 L 1.453125 -6.625 Z M 1.453125 -0.515625 "/>
 </defs>
 <image width="497" xlink:href="svg/9/96_11.jpg" height="279"/>
 <g>
  <path d="M 153.003906 271.652344 L 155.050781 271.652344 C 155.933594 271.652344 156.605469 271.789062 157.066406 272.058594 C 157.523438 272.320312 157.753906 272.773438 157.753906 273.417969 C 157.753906 273.847656 157.632812 274.199219 157.394531 274.480469 C 157.164062 274.753906 156.832031 274.925781 156.394531 274.996094 L 156.394531 275.058594 C 156.695312 275.101562 156.964844 275.183594 157.207031 275.308594 C 157.457031 275.433594 157.648438 275.617188 157.785156 275.855469 C 157.917969 276.085938 157.988281 276.386719 157.988281 276.761719 C 157.988281 277.410156 157.761719 277.910156 157.316406 278.261719 C 156.878906 278.617188 156.277344 278.792969 155.519531 278.792969 L 153.003906 278.792969 Z M 153.910156 274.699219 L 155.222656 274.699219 C 155.835938 274.699219 156.257812 274.601562 156.488281 274.402344 C 156.714844 274.207031 156.832031 273.914062 156.832031 273.527344 C 156.832031 273.132812 156.691406 272.851562 156.410156 272.683594 C 156.128906 272.507812 155.683594 272.417969 155.082031 272.417969 L 153.910156 272.417969 Z M 153.910156 275.449219 L 153.910156 278.027344 L 155.347656 278.027344 C 155.980469 278.027344 156.417969 277.910156 156.660156 277.667969 C 156.910156 277.417969 157.035156 277.097656 157.035156 276.699219 C 157.035156 276.324219 156.902344 276.023438 156.644531 275.792969 C 156.394531 275.566406 155.933594 275.449219 155.269531 275.449219 Z M 153.910156 275.449219 " transform=" rotate(  340 172.496 275.791) " style="fill:none;stroke-width:3;stroke-linecap:butt;stroke-linejoin:round;stroke:rgb(100%,100%,100%);stroke-opacity:0.6;stroke-miterlimit:10;"/>
  <path d="M 161.878906 273.339844 C 161.980469 273.339844 162.089844 273.347656 162.207031 273.355469 C 162.320312 273.355469 162.425781 273.367188 162.519531 273.386719 L 162.410156 274.199219 C 162.316406 274.179688 162.214844 274.164062 162.113281 274.152344 C 162.019531 274.144531 161.925781 274.136719 161.832031 274.136719 C 161.550781 274.136719 161.289062 274.214844 161.050781 274.371094 C 160.808594 274.519531 160.617188 274.726562 160.472656 274.996094 C 160.335938 275.257812 160.269531 275.570312 160.269531 275.933594 L 160.269531 278.792969 L 159.378906 278.792969 L 159.378906 273.433594 L 160.097656 273.433594 L 160.207031 274.417969 L 160.238281 274.417969 C 160.414062 274.128906 160.636719 273.878906 160.910156 273.667969 C 161.191406 273.449219 161.511719 273.339844 161.878906 273.339844 Z M 161.878906 273.339844 " transform=" rotate(  340 172.496 275.791) " style="fill:none;stroke-width:3;stroke-linecap:butt;stroke-linejoin:round;stroke:rgb(100%,100%,100%);stroke-opacity:0.6;stroke-miterlimit:10;"/>
  <path d="M 165.339844 273.339844 C 165.996094 273.339844 166.480469 273.488281 166.792969 273.777344 C 167.105469 274.058594 167.261719 274.511719 167.261719 275.136719 L 167.261719 278.792969 L 166.621094 278.792969 L 166.449219 278.027344 L 166.417969 278.027344 C 166.175781 278.332031 165.925781 278.550781 165.667969 278.683594 C 165.417969 278.816406 165.066406 278.886719 164.621094 278.886719 C 164.128906 278.886719 163.722656 278.761719 163.402344 278.511719 C 163.078125 278.253906 162.917969 277.851562 162.917969 277.308594 C 162.917969 276.769531 163.125 276.355469 163.542969 276.074219 C 163.96875 275.785156 164.621094 275.621094 165.496094 275.589844 L 166.402344 275.558594 L 166.402344 275.246094 C 166.402344 274.800781 166.300781 274.492188 166.105469 274.324219 C 165.917969 274.148438 165.644531 274.058594 165.292969 274.058594 C 165.011719 274.058594 164.746094 274.101562 164.496094 274.183594 C 164.246094 274.269531 164.003906 274.363281 163.777344 274.464844 L 163.511719 273.808594 C 163.75 273.675781 164.027344 273.566406 164.339844 273.480469 C 164.660156 273.386719 164.996094 273.339844 165.339844 273.339844 Z M 166.402344 276.167969 L 165.605469 276.199219 C 164.9375 276.230469 164.472656 276.339844 164.214844 276.527344 C 163.964844 276.714844 163.839844 276.976562 163.839844 277.308594 C 163.839844 277.613281 163.925781 277.835938 164.105469 277.980469 C 164.292969 278.117188 164.527344 278.183594 164.808594 278.183594 C 165.265625 278.183594 165.644531 278.058594 165.949219 277.808594 C 166.25 277.558594 166.402344 277.175781 166.402344 276.652344 Z M 166.402344 276.167969 " transform=" rotate(  340 172.496 275.791) " style="fill:none;stroke-width:3;stroke-linecap:butt;stroke-linejoin:round;stroke:rgb(100%,100%,100%);stroke-opacity:0.6;stroke-miterlimit:10;"/>
  <path d="M 171.511719 273.339844 C 172.144531 273.339844 172.625 273.496094 172.949219 273.808594 C 173.28125 274.113281 173.449219 274.613281 173.449219 275.308594 L 173.449219 278.792969 L 172.574219 278.792969 L 172.574219 275.355469 C 172.574219 274.503906 172.171875 274.074219 171.371094 274.074219 C 170.777344 274.074219 170.363281 274.242188 170.136719 274.574219 C 169.917969 274.910156 169.808594 275.386719 169.808594 276.011719 L 169.808594 278.792969 L 168.917969 278.792969 L 168.917969 273.433594 L 169.636719 273.433594 L 169.761719 274.167969 L 169.808594 274.167969 C 169.984375 273.886719 170.222656 273.679688 170.527344 273.542969 C 170.839844 273.410156 171.167969 273.339844 171.511719 273.339844 Z M 171.511719 273.339844 " transform=" rotate(  340 172.496 275.791) " style="fill:none;stroke-width:3;stroke-linecap:butt;stroke-linejoin:round;stroke:rgb(100%,100%,100%);stroke-opacity:0.6;stroke-miterlimit:10;"/>
  <path d="M 177.003906 278.886719 C 176.335938 278.886719 175.800781 278.660156 175.394531 278.199219 C 174.996094 277.730469 174.800781 277.039062 174.800781 276.121094 C 174.800781 275.207031 175.003906 274.511719 175.410156 274.042969 C 175.816406 273.574219 176.351562 273.339844 177.019531 273.339844 C 177.425781 273.339844 177.757812 273.417969 178.019531 273.574219 C 178.289062 273.722656 178.507812 273.902344 178.675781 274.121094 L 178.738281 274.121094 C 178.726562 274.039062 178.710938 273.914062 178.691406 273.746094 C 178.679688 273.570312 178.675781 273.433594 178.675781 273.339844 L 178.675781 271.199219 L 179.550781 271.199219 L 179.550781 278.792969 L 178.847656 278.792969 L 178.707031 278.074219 L 178.675781 278.074219 C 178.519531 278.304688 178.304688 278.496094 178.035156 278.652344 C 177.761719 278.808594 177.417969 278.886719 177.003906 278.886719 Z M 177.144531 278.167969 C 177.707031 278.167969 178.101562 278.011719 178.332031 277.699219 C 178.570312 277.386719 178.691406 276.917969 178.691406 276.292969 L 178.691406 276.136719 C 178.691406 275.472656 178.574219 274.960938 178.347656 274.605469 C 178.128906 274.242188 177.722656 274.058594 177.128906 274.058594 C 176.660156 274.058594 176.304688 274.253906 176.066406 274.636719 C 175.824219 275.011719 175.707031 275.511719 175.707031 276.136719 C 175.707031 276.785156 175.824219 277.285156 176.066406 277.636719 C 176.304688 277.992188 176.664062 278.167969 177.144531 278.167969 Z M 177.144531 278.167969 " transform=" rotate(  340 172.496 275.791) " style="fill:none;stroke-width:3;stroke-linecap:butt;stroke-linejoin:round;stroke:rgb(100%,100%,100%);stroke-opacity:0.6;stroke-miterlimit:10;"/>
  <path d="M 185.921875 276.105469 C 185.921875 276.992188 185.691406 277.679688 185.234375 278.167969 C 184.785156 278.648438 184.179688 278.886719 183.421875 278.886719 C 182.941406 278.886719 182.515625 278.785156 182.140625 278.574219 C 181.773438 278.355469 181.484375 278.039062 181.265625 277.621094 C 181.054688 277.207031 180.953125 276.699219 180.953125 276.105469 C 180.953125 275.222656 181.175781 274.539062 181.625 274.058594 C 182.070312 273.582031 182.679688 273.339844 183.453125 273.339844 C 183.929688 273.339844 184.351562 273.449219 184.71875 273.667969 C 185.09375 273.878906 185.382812 274.191406 185.59375 274.605469 C 185.8125 275.011719 185.921875 275.511719 185.921875 276.105469 Z M 181.859375 276.105469 C 181.859375 276.742188 181.984375 277.246094 182.234375 277.621094 C 182.484375 277.988281 182.882812 278.167969 183.4375 278.167969 C 183.976562 278.167969 184.375 277.988281 184.625 277.621094 C 184.875 277.246094 185 276.742188 185 276.105469 C 185 275.472656 184.875 274.976562 184.625 274.621094 C 184.375 274.257812 183.972656 274.074219 183.421875 274.074219 C 182.878906 274.074219 182.484375 274.257812 182.234375 274.621094 C 181.984375 274.976562 181.859375 275.472656 181.859375 276.105469 Z M 181.859375 276.105469 " transform=" rotate(  340 172.496 275.791) " style="fill:none;stroke-width:3;stroke-linecap:butt;stroke-linejoin:round;stroke:rgb(100%,100%,100%);stroke-opacity:0.6;stroke-miterlimit:10;"/>
  <path d="M 189.894531 273.339844 C 190.527344 273.339844 191.007812 273.496094 191.332031 273.808594 C 191.664062 274.113281 191.832031 274.613281 191.832031 275.308594 L 191.832031 278.792969 L 190.957031 278.792969 L 190.957031 275.355469 C 190.957031 274.503906 190.554688 274.074219 189.753906 274.074219 C 189.160156 274.074219 188.746094 274.242188 188.519531 274.574219 C 188.300781 274.910156 188.191406 275.386719 188.191406 276.011719 L 188.191406 278.792969 L 187.300781 278.792969 L 187.300781 273.433594 L 188.019531 273.433594 L 188.144531 274.167969 L 188.191406 274.167969 C 188.367188 273.886719 188.605469 273.679688 188.910156 273.542969 C 189.222656 273.410156 189.550781 273.339844 189.894531 273.339844 Z M 189.894531 273.339844 " transform=" rotate(  340 172.496 275.791) " style="fill:none;stroke-width:3;stroke-linecap:butt;stroke-linejoin:round;stroke:rgb(100%,100%,100%);stroke-opacity:0.6;stroke-miterlimit:10;"/>
  <g transform=" rotate(  340 172.496 275.791) " style="fill:rgb(13.333333%,13.333333%,13.333333%);fill-opacity:1;">
   <use xlink:href="#glyph0-1" y="278.791259" x="152.035643"/>
   <use xlink:href="#glyph0-2" y="278.791259" x="158.535643"/>
   <use xlink:href="#glyph0-3" y="278.791259" x="162.465643"/>
   <use xlink:href="#glyph0-4" y="278.791259" x="168.075643"/>
   <use xlink:href="#glyph0-5" y="278.791259" x="174.255643"/>
   <use xlink:href="#glyph0-6" y="278.791259" x="180.405643"/>
   <use xlink:href="#glyph0-4" y="278.791259" x="186.455643"/>
  </g>
 </g>
</svg>

<svg xmlns="http://www.w3.org/2000/svg" xmlns:xlink="http://www.w3.org/1999/xlink" viewBox="0 0 497 279"> <defs overflow="visible" style="stroke:none">  <path id="f" d="M5.5-2.7c0 .9-.2 1.7-.7 2-.4.7-1 .9-1.8.9-.5-.2-.9-.2-1.3-.4-.3-.2-.6-.6-.7-1C.6-1.6.5-2 .5-2.7c0-.9.3-1.6.7-2 .5-.5 1-.8 1.8-.8.5 0 1 .2 1.3.5.4 0 .7.4.9.9.2.2.3.7.3 1.3Zm-4 0c0 .7 0 1.2.3 1.5.3.4.7.6 1.2.6.6 0 1-.2 1.2-.6.3-.3.4-.8.4-1.5s-.1-1.1-.4-1.5c-.2-.3-.6-.5-1.2-.5-.5 0-1 .2-1.2.5-.2.4-.3.9-.3 1.5Zm0 0"/>  <path id="e" d="M2.8 0C2 0 1.4 0 1-.5.7-1 .5-1.8.5-2.6c0-1.1.3-1.8.7-2.2.4-.5.8-.7 1.6-.7.4 0 .7.1 1 .3a2 2 0 0 1 .6.5v-2.8h.9V0h-.7l-.1-.7a2 2 0 0 1-.8.6l-.9.1Zm0-.5c.8-.1 1.1-.3 1.4-.6.1-.3.2-.8.2-1.4v-.2c0-.6 0-1.1-.3-1.5-.2-.4-.6-.5-1.2-.5-.5 0-.9.2-1 .5-.4.4-.5 1-.5 1.5.1.7.1 1.2.4 1.5.3.4.6.6 1 .6Zm.1-.1"/>  <path id="d" d="M3.4-5.5c.7 0 1.2.2 1.6.5.2.3.4.8.4 1.5V0h-.9v-3.4c0-.9-.4-1.3-1.2-1.3-.6 0-1 .1-1.2.5-.3.2-.4.8-.4 1.4V0H.8v-5.4h.8v.8h.2c.2-.4.3-.5.7-.7l1-.2Zm0 0"/>  <path id="c" d="M2.9-5.5c.6 0 1.1.2 1.4.5.3.3.5.7.5 1.3V0h-.6L4-.8c-.3.3-.5.6-.8.8h-1c-.5 0-1 0-1.3-.3C.6-.5.5-.9.5-1.5c0-.5.2-1 .5-1.2.5-.3 1-.5 2-.5h.8v-.3c.2-.5.2-.8-.2-1l-.8-.2H2l-.7.5L1-5l1-.3.9-.2Zm1 2.9h-.8c-.6 0-1 .1-1.4.3-.1.3-.3.5-.3.8 0 .3 0 .5.2.7l.7.2c.5 0 .9-.1 1.2-.4.3-.2.4-.6.4-1Zm.1 0"/>  <path id="b" d="M3.3-5.5H4l-.1 1.1-.3-.3h-.3c-.3 0-.5 0-.8.2l-.5.7-.3 1V0H.8v-5.4h.8v1h.2l.6-.6c.3-.3.6-.5 1-.5Zm0 0"/>  <path id="a" d="M1-7.1h2c1 0 1.6.1 2 .4.5.2.7.7.7 1.3 0 .5-.1.8-.3 1-.4.4-.6.6-1 .7l.8.3c.2 0 .4.2.5.5.3.2.3.5.3.9 0 .6-.3 1-.7 1.5-.5.3-1 .5-1.8.5H1Zm.9 3h1.3c.6.1 1 .1 1.3-.3.2-.2.3-.5.3-.9s-.1-.6-.4-.7c-.4-.3-.8-.4-1.4-.4H2Zm0 .8v2.5h1.4c.7 0 1 0 1.3-.2.4-.4.4-.7.4-1.1s-.1-.7-.4-.9c-.2-.2-.6-.3-1.4-.3Zm0 0"/>  <path d="M1 0v-7.1h4V0Zm.4-.5h3.1v-6.1h-3Zm.1 0"/> </defs> <image xlink:href="svg/9/96_11.jpg" width="497" height="279"/> <path d="M153 271.7h2c1 0 1.7 0 2 .3.6.3.9.8.9 1.4-.1.4-.3.8-.5 1-.2.5-.6.6-1 .6l.8.4c.3 0 .4.2.6.6l.2.8c0 .6-.2 1.1-.7 1.5-.3.3-1 .5-1.8.5H153Zm1 3h1.1c.7 0 1.1-.1 1.4-.3.2-.2.3-.5.3-.9s-.1-.5-.4-.8c-.3-.2-.7-.3-1.3-.3h-1.2Zm0 .7v2.6h1.2c.8 0 1.2 0 1.5-.3.2-.3.3-.7.3-1s0-.7-.4-1c-.2 0-.6-.2-1.3-.2Zm7.9-2.1h.6v1h-.8c-.1-.2-.4-.2-.6 0-.3.2-.5.4-.6.7-.2.3-.2.6-.2 1v2.7h-1v-5.3h.9v1l.8-.7c.2-.3.5-.4 1-.4Zm3.4 0c.7 0 1.2.2 1.5.5.2.2.5.7.5 1.2v3.8h-.7l-.2-.8-.7.7-1 .2c-.7 0-1.1-.1-1.4-.4-.2-.2-.4-.5-.4-1.2.1-.5.2-1 .6-1.2.5-.3 1.1-.5 2-.5h.9v-.4c0-.4-.1-.7-.3-.9-.1-.2-.5-.2-.8-.2h-.8l-.7.5-.3-.8.8-.3 1-.2Zm1.1 2.9h-.8c-.6 0-1.1.1-1.4.3-.2.2-.4.5-.4.8 0 .3.2.5.3.7l.7.2c.5 0 .8-.2 1.2-.4.2-.2.4-.6.4-1.1Zm5.1-2.9c.6 0 1.1.2 1.5.5.3.3.4.8.4 1.5v3.5h-.8v-3.4c0-.9-.4-1.4-1.2-1.4-.6 0-1 .2-1.4.6 0 .3-.2.8-.2 1.4v2.8h-.8v-5.4h.6l.2.8.7-.7 1-.2Zm5.5 5.6c-.7 0-1.2-.2-1.6-.7-.4-.5-.6-1.2-.6-2 0-1.1.2-1.8.6-2.2.4-.4 1-.7 1.6-.7.4 0 .8.1 1 .3a2 2 0 0 1 .7.4v-2.8h.9v7.6h-.8v-.8h-.2a2 2 0 0 1-.6.7l-1 .2Zm.1-.7c.6 0 1-.2 1.2-.5.3-.3.4-.8.4-1.4v-.3c0-.5-.1-1-.4-1.4-.2-.4-.6-.5-1.2-.5-.4-.1-.8.2-1 .5-.3.4-.4 1-.4 1.5 0 .7.1 1.2.4 1.5.2.4.6.6.9.6Zm8.9-2.1c0 .9-.4 1.6-.9 2-.3.6-.9.9-1.7.9-.4-.1-.9-.2-1.3-.4-.3-.2-.6-.6-.8-1-.3-.4-.3-.9-.3-1.5 0-.9.2-1.6.6-2 .5-.5 1-.8 1.9-.8.4 0 .9.1 1.2.4.4.2.7.5.9 1 .2.3.3.7.3 1.3Zm-4.2 0c.1.6.1 1.1.4 1.5.3.4.8.6 1.2.6.6 0 1-.2 1.2-.6.4-.4.4-.9.4-1.5s-.1-1.1-.4-1.5c-.2-.3-.6-.5-1.2-.5-.4-.1-1 .2-1.2.5-.2.4-.2.9-.2 1.5Zm8.1-2.8c.6 0 1.1.2 1.4.5.4.3.5.8.5 1.5v3.5h-.8v-3.4c0-.9-.4-1.4-1.2-1.4-.6 0-1 .2-1.3.6-.2.3-.3.8-.3 1.4v2.8h-.9v-5.4h.7l.1.8.9-.7 1-.2Zm0 0" style="fill:none;stroke-width:3;stroke-linecap:butt;stroke-linejoin:round;stroke:#fff;stroke-opacity:.6;stroke-miterlimit:10" transform=" rotate(  340 172.496 275.791) "/> <g style="fill:#222;fill-opacity:1" transform=" rotate(  340 172.496 275.791) ">  <use xlink:href="#a" x="152" y="278.8"/>  <use xlink:href="#b" x="158.5" y="278.8"/>  <use xlink:href="#c" x="162.5" y="278.8"/>  <use xlink:href="#d" x="168.1" y="278.8"/>  <use xlink:href="#e" x="174.3" y="278.8"/>  <use xlink:href="#f" x="180.4" y="278.8"/>  <use xlink:href="#d" x="186.5" y="278.8"/> </g></svg>
